X: 40670
T: Top Of The Stairs, The
R: reel
M: 4/4
K: Dmajor
|:FG|(3ABA FA BAFA|(3ABA FA BAFA|AGFG E2EG|AGFG E2EG|
(3ABA FA BAFA|(3ABA FA BAFA|d2eg fedc|dBAF D2:|
|:e2|fgfe edBA|F2AF DFAd|fgfe edBA|Beed e2de|
fgfe edBA|F2AF DFAd|d2eg fedc|dBAF D2:|

